src/icons/white-spotify.svg

<svg width="20" height="20" viewBox="0 0 20 20" fill="none" xmlns="http://www.w3.org/2000/svg">
<path fill-rule="evenodd" clip-rule="evenodd" d="M15.915 8.86523C12.692 6.95123 7.375 6.77498 4.297 7.70898C3.803 7.85798 3.281 7.57996 3.131 7.08496C2.981 6.59096 3.26 6.06895 3.754 5.91895C7.287 4.84595 13.159 5.05286 16.87 7.25586C17.314 7.51986 17.46 8.09409 17.196 8.53809C16.934 8.98209 16.358 9.12923 15.915 8.86523ZM15.81 11.7002C15.584 12.0672 15.104 12.182 14.737 11.957C12.05 10.305 7.952 9.82699 4.773 10.792C4.36 10.916 3.925 10.684 3.8 10.272C3.676 9.85997 3.908 9.4248 4.32 9.2998C7.951 8.1978 12.466 8.73191 15.553 10.6289C15.92 10.8539 16.035 11.3342 15.81 11.7002ZM14.586 14.4229C14.406 14.7169 14.023 14.8099 13.729 14.6299C11.381 13.1949 8.425 12.871 4.944 13.666C4.609 13.743 4.274 13.5328 4.198 13.1968C4.121 12.8618 4.33 12.5282 4.667 12.4512C8.476 11.5802 11.743 11.9549 14.379 13.5659C14.673 13.7459 14.766 14.1289 14.586 14.4229ZM10 0C4.477 0 0 4.477 0 10C0 15.523 4.477 20 10 20C15.523 20 20 15.523 20 10C20 4.478 15.523 0 10 0Z" fill="#FAF9F6"/>
</svg>

<svg xmlns="http://www.w3.org/2000/svg" width="20" height="20" fill="none"><path fill="#FAF9F6" fill-rule="evenodd" d="M15.915 8.865c-3.223-1.914-8.54-2.09-11.618-1.156a.935.935 0 0 1-.543-1.79c3.533-1.073 9.405-.866 13.116 1.337a.936.936 0 0 1-.955 1.61ZM15.81 11.7a.78.78 0 0 1-1.073.257c-2.687-1.652-6.785-2.13-9.964-1.165A.78.78 0 0 1 4.32 9.3c3.631-1.102 8.146-.568 11.233 1.329a.779.779 0 0 1 .257 1.071Zm-1.224 2.723a.623.623 0 0 1-.857.207c-2.348-1.435-5.304-1.759-8.785-.964a.622.622 0 1 1-.277-1.215c3.809-.87 7.076-.496 9.712 1.115.294.18.387.563.207.857ZM10 0C4.477 0 0 4.477 0 10s4.477 10 10 10 10-4.477 10-10c0-5.522-4.477-10-10-10Z" clip-rule="evenodd"/></svg>
